src/images/icons/icon-dopprod-1-active.svg

<svg width="44" height="42" viewBox="0 0 44 42" fill="none" xmlns="http://www.w3.org/2000/svg">
<path d="M32.6999 21.7C32.1999 21.5 31 20.4 30.9 19.8C30.6999 19 30.6999 18 30.9 17C32 9.39996 26 6.59996 24.4 6.29996C21.7 5.79996 19.7 6.09996 17.7 7.09996C15 8.59996 13.3 11.7 12.8 13.9L11.2 13.6C11.7 10.9 13.6999 7.39996 16.9 5.69996C19.2 4.39996 21.5999 4.09996 24.6999 4.69996C27.5999 5.29996 33.6 9.19996 32.5 17.2C32.4 18 32.4 18.8 32.5 19.4C32.6 19.6 33.1 20.1 33.3 20.2C33 20.1 32.6999 21.7 32.6999 21.7Z" fill="#003067"/>
<path d="M32.4999 24.9001C31.5999 24.9001 30.6999 24.6001 29.8999 24.1001C27.0999 22.2001 27.3999 19.6001 27.5999 18.4001C27.5999 18.2001 27.6999 18.0001 27.6999 17.9001C27.6999 15.6001 27.5999 13.8001 26.7999 12.3001C25.8999 10.6001 25.2999 10.2001 23.7999 9.50005C22.4999 8.90005 20.0999 9.40005 18.7999 10.5001C17.2999 11.7001 16.5999 12.6001 16.1999 14.0001C15.8999 15.1001 15.4999 16.4001 14.4999 17.2001C13.5999 18.0001 12.7999 18.0001 11.9999 17.9001C11.7999 17.9001 11.5999 17.9001 11.3999 17.9001V16.3001C11.5999 16.3001 11.8999 16.3001 12.0999 16.3001C12.6999 16.3001 12.9999 16.3001 13.3999 16.0001C13.9999 15.4001 14.2999 14.5001 14.5999 13.6001C15.1999 11.5001 16.2999 10.3001 17.6999 9.20005C19.4999 7.70005 22.4999 7.20005 24.2999 8.00005C26.2999 8.90005 27.0999 9.60005 28.0999 11.5001C28.9999 13.3001 29.1999 15.3001 29.1999 17.8001C29.1999 18.0001 29.1999 18.2001 29.0999 18.5001C28.8999 19.7001 28.6999 21.3001 30.6999 22.7001C31.2999 23.1001 31.9999 23.3001 32.5999 23.2001L32.6999 24.8001C32.6999 24.8001 32.5999 24.9001 32.4999 24.9001Z" fill="#003067"/>
<path d="M11.8001 28.3001C11.5001 28.3001 11.7001 26.7001 11.7001 26.7001C12.3001 26.6001 18.6001 24.7001 20.9001 23.1001C22.9001 21.7001 23.4001 20.1001 24.0001 17.0001C24.2001 16.2001 24.3001 14.9001 24.0001 14.2001C23.4001 12.5001 22.2001 12.3001 21.8001 12.4001C21.1001 12.6001 20.2001 13.0001 19.9001 13.7001C19.6001 14.2001 19.4001 14.8001 19.2001 15.5001C18.8001 16.8001 18.3001 18.2001 17.2001 19.3001C16.4001 20.1001 12.6001 21.8001 11.1001 21.4001L11.5001 19.9001C12.2001 20.1001 15.5001 18.8001 16.1001 18.3001C16.9001 17.4001 17.3001 16.3001 17.7001 15.1001C17.9001 14.4001 18.1001 13.8001 18.5001 13.1001C19.1001 11.9001 20.4001 11.2001 21.5001 11.0001C22.7001 10.7001 24.8001 11.4001 25.6001 13.9001C26.0001 15.2001 25.7001 17.0001 25.6001 17.5001C25.0001 20.7001 24.4001 22.7001 21.8001 24.6001C20.7001 25.4001 18.7001 26.3001 15.9001 27.2001C13.3001 27.9001 12.3001 28.3001 11.8001 28.3001Z" fill="#003067"/>
<path d="M11.6001 24.6C11.4001 24.6 11.2001 24.6 11.1001 24.6L11.2001 23C11.8001 23 17.5001 23.2 20.0001 18.8C20.5001 18 21.2001 15.2 21.2001 14.7C21.2001 14.8 22.4001 13.8 22.4001 13.8C23.6001 14.6 21.4001 19.6 21.4001 19.6C18.8001 24.2 13.3001 24.6 11.6001 24.6Z" fill="#003067"/>
<path d="M32.1999 27.5999C29.9999 27.5999 26.1999 26.6 24.8999 24.5L26.2999 23.7C27.0999 25 30.0999 26 32.1999 26V27.5999Z" fill="#003067"/>
<path d="M13.0001 31.0999L12.6001 29.5999C13.0001 29.4999 13.8001 29.2999 14.7001 28.9999C18.6001 27.8999 22.3001 26.8999 23.5001 26.8999C24.2001 26.8999 25.7001 27.4999 28.0001 28.3999C29.1001 28.7999 30.2001 29.2999 31.0001 29.4999L30.5001 30.9999C29.7001 30.6999 28.5001 30.2999 27.4001 29.7999C26.0001 29.1999 24.0001 28.3999 23.4001 28.3999C22.3001 28.3999 17.6001 29.6999 15.1001 30.3999C14.1001 30.7999 13.4001 30.9999 13.0001 31.0999Z" fill="#003067"/>
<path d="M15.5 34L15 32.5L15.4 32.4C18 31.5 21.7 30.3 23.5 30.3C24.4 30.3 29.2 32.6 29.3 32.6L28.6 34C27.4 33.4 24.1 31.9 23.5 31.9C22.4 31.9 19.8 32.6 15.9 33.9L15.5 34Z" fill="#003067"/>
<path d="M18.2 36.3001L17.2 35.1001C18 34.4001 21.1 34.0001 21.3 34.0001H21.6C22.7 33.8001 24.9 33.5001 26.8 35.0001L25.8 36.2001C24.5 35.1001 22.9 35.4001 21.9 35.5001L21.6 35.6001C20.3 35.7001 18.6 36.1001 18.2 36.3001Z" fill="#003067"/>
<path d="M38.3 41.6H32.2V40H38.3C40.1 40 41.6 38.5 41.6 36.7V31H43.2V36.7C43.2 39.4 41 41.6 38.3 41.6ZM11 41.6H4.9C2.2 41.6 0 39.4 0 36.7V31H1.6V36.7C1.6 38.5 3.1 40 4.9 40H11V41.6ZM43.2 10.6H41.6V4.9C41.6 3.1 40.1 1.6 38.3 1.6H32.2V0H38.3C41 0 43.2 2.2 43.2 4.9V10.6ZM1.6 10.6H0V4.9C0 2.2 2.2 0 4.9 0H11V1.6H4.9C3.1 1.6 1.6 3.1 1.6 4.9V10.6Z" fill="#003067"/>
</svg>

<svg xmlns="http://www.w3.org/2000/svg" width="44" height="42" fill="none" viewBox="0 0 44 42">
	<path fill="#003067" d="M32.7 21.7c-.5-.2-1.7-1.3-1.8-1.9-.2-.8-.2-1.8 0-2.8C32 9.4 26 6.6 24.4 6.3c-2.7-.5-4.7-.2-6.7.8-2.7 1.5-4.4 4.6-4.9 6.8l-1.6-.3c.5-2.7 2.5-6.2 5.7-7.9 2.3-1.3 4.7-1.6 7.8-1 2.9.6 8.9 4.5 7.8 12.5-.1.8-.1 1.6 0 2.2.1.2.6.7.8.8-.3-.1-.6 1.5-.6 1.5z"/>
	<path fill="#003067" d="M32.5 24.9c-.9 0-1.8-.3-2.6-.8-2.8-1.9-2.5-4.5-2.3-5.7 0-.2.1-.4.1-.5 0-2.3-.1-4.1-.9-5.6-.9-1.7-1.5-2.1-3-2.8-1.3-.6-3.7-.1-5 1-1.5 1.2-2.2 2.1-2.6 3.5-.3 1.1-.7 2.4-1.7 3.2-.9.8-1.7.8-2.5.7h-.6v-1.6h.7c.6 0 .9 0 1.3-.3.6-.6.9-1.5 1.2-2.4.6-2.1 1.7-3.3 3.1-4.4 1.8-1.5 4.8-2 6.6-1.2 2 .9 2.8 1.6 3.8 3.5.9 1.8 1.1 3.8 1.1 6.3 0 .2 0 .4-.1.7-.2 1.2-.4 2.8 1.6 4.2.6.4 1.3.6 1.9.5l.1 1.6s-.1.1-.2.1z"/>
	<path fill="#003067" d="M11.8 28.3c-.3 0-.1-1.6-.1-1.6.6-.1 6.9-2 9.2-3.6 2-1.4 2.5-3 3.1-6.1.2-.8.3-2.1 0-2.8-.6-1.7-1.8-1.9-2.2-1.8-.7.2-1.6.6-1.9 1.3-.3.5-.5 1.1-.7 1.8-.4 1.3-.9 2.7-2 3.8-.8.8-4.6 2.5-6.1 2.1l.4-1.5c.7.2 4-1.1 4.6-1.6.8-.9 1.2-2 1.6-3.2.2-.7.4-1.3.8-2 .6-1.2 1.9-1.9 3-2.1 1.2-.3 3.3.4 4.1 2.9.4 1.3.1 3.1 0 3.6-.6 3.2-1.2 5.2-3.8 7.1-1.1.8-3.1 1.7-5.9 2.6-2.6.7-3.6 1.1-4.1 1.1z"/>
	<path fill="#003067" d="M11.6 24.6h-.5l.1-1.6c.6 0 6.3.2 8.8-4.2.5-.8 1.2-3.6 1.2-4.1 0 .1 1.2-.9 1.2-.9 1.2.8-1 5.8-1 5.8-2.6 4.6-8.1 5-9.8 5zM32.2 27.6c-2.2 0-6-1-7.3-3.1l1.4-.8c.8 1.3 3.8 2.3 5.9 2.3v1.6zM13 31.1l-.4-1.5c.4-.1 1.2-.3 2.1-.6 3.9-1.1 7.6-2.1 8.8-2.1.7 0 2.2.6 4.5 1.5 1.1.4 2.2.9 3 1.1l-.5 1.5c-.8-.3-2-.7-3.1-1.2-1.4-.6-3.4-1.4-4-1.4-1.1 0-5.8 1.3-8.3 2-1 .4-1.7.6-2.1.7z"/>
	<path fill="#003067" d="m15.5 34-.5-1.5.4-.1c2.6-.9 6.3-2.1 8.1-2.1.9 0 5.7 2.3 5.8 2.3l-.7 1.4c-1.2-.6-4.5-2.1-5.1-2.1-1.1 0-3.7.7-7.6 2l-.4.1z"/>
	<path fill="#003067" d="m18.2 36.3-1-1.2c.8-.7 3.9-1.1 4.1-1.1h.3c1.1-.2 3.3-.5 5.2 1l-1 1.2c-1.3-1.1-2.9-.8-3.9-.7l-.3.1c-1.3.1-3 .5-3.4.7zM38.3 41.6h-6.1V40h6.1c1.8 0 3.3-1.5 3.3-3.3V31h1.6v5.7c0 2.7-2.2 4.9-4.9 4.9zm-27.3 0H4.9c-2.7 0-4.9-2.2-4.9-4.9V31h1.6v5.7c0 1.8 1.5 3.3 3.3 3.3H11v1.6zm32.2-31h-1.6V4.9c0-1.8-1.5-3.3-3.3-3.3h-6.1V0h6.1c2.7 0 4.9 2.2 4.9 4.9v5.7zm-41.6 0H0V4.9C0 2.2 2.2 0 4.9 0H11v1.6H4.9c-1.8 0-3.3 1.5-3.3 3.3v5.7z"/>
</svg>
